docs/static/img/logos/prometheus.svg

<?xml version="1.0" encoding="UTF-8"?>
<svg width="64px" height="64px" viewBox="0 0 64 64" version="1.1" xmlns="http://www.w3.org/2000/svg" xmlns:xlink="http://www.w3.org/1999/xlink">
    <!-- Generator: Sketch 63.1 (92452) - https://sketch.com -->
    <title>Icon</title>
    <desc>Created with Sketch.</desc>
    <g id="Icon" stroke="none" stroke-width="1" fill="none" fill-rule="evenodd">
        <g id="prometheus" fill="#DA4E31" fill-rule="nonzero">
            <path d="M31.8523077,0.327876923 C14.4512,0.327876923 0.344615385,14.4334769 0.344615385,31.8355692 C0.344615385,49.2376615 14.4521846,63.3432615 31.8523077,63.3432615 C49.2524308,63.3432615 63.36,49.2366769 63.36,31.8355692 C63.36,14.4344615 49.2524308,0.327876923 31.8523077,0.327876923 Z M31.8523077,59.2964923 C26.9016615,59.2964923 22.8873846,55.9881846 22.8873846,51.9118769 L40.8073846,51.9118769 C40.8073846,55.9901538 36.7931077,59.2964923 31.8424615,59.2964923 L31.8523077,59.2964923 Z M46.6707692,49.4670769 L17.0436923,49.4670769 L17.0436923,44.0969846 L46.6707692,44.0969846 L46.6707692,49.4670769 Z M46.5644308,41.3341538 L17.1293538,41.3341538 L16.8369231,40.9954462 C13.8043077,37.3129846 13.0914462,35.3831385 12.3982204,33.4336 C12.3864615,33.3686154 16.0748308,34.1878154 18.6899692,34.7756308 C18.6899692,34.7756308 20.0359385,35.0867692 22.0022154,35.4451692 C20.1137231,33.2297846 18.9922462,30.4167385 18.9922462,27.5387077 C18.9922462,21.2224 23.8365538,15.7036308 22.0888615,11.2433231 C23.7902769,11.3811692 25.6088615,14.8332308 25.7319385,20.2289231 C27.5406769,17.7299692 28.2968615,13.1672615 28.2968615,10.3689846 C28.2968615,7.47224615 30.2070154,4.10683077 32.1152,3.99163077 C30.4118154,6.79778462 32.5563077,9.20024615 34.4605538,15.1670154 C35.1753846,17.408 35.0838154,21.1790769 35.6352,23.5707077 C35.8183385,18.6033231 36.672,11.3565538 39.8237538,8.85464615 C38.4334769,12.0054154 40.0305231,15.9488 41.1214769,17.8441846 C42.8839385,20.9024 43.9502769,23.2201846 43.9502769,27.5918769 C43.9502769,30.5299692 42.8652308,33.2957538 41.0358154,35.4688 C43.1163077,35.0779077 44.5528615,34.7264 44.5528615,34.7264 L51.3092923,33.4070154 C51.3092923,33.4060308 50.3276308,37.4439385 46.5555692,41.3331692 L46.5644308,41.3341538 Z" id="Shape"></path>
        </g>
    </g>
</svg>

<svg width="64" height="64" viewBox="0 0 64 64" xmlns="http://www.w3.org/2000/svg">
  <path d="M31.852.328C14.452.328.345 14.433.345 31.836c0 17.402 14.107 31.507 31.507 31.507 17.4 0 31.508-14.106 31.508-31.507C63.36 14.434 49.252.328 31.852.328zm0 58.968c-4.95 0-8.965-3.308-8.965-7.384h17.92c0 4.078-4.014 7.384-8.965 7.384h.01zm14.819-9.829H17.044v-5.37H46.67v5.37zm-.107-8.133H17.13l-.292-.339c-3.033-3.682-3.746-5.612-4.439-7.561-.012-.065 3.677.754 6.292 1.342 0 0 1.346.31 3.312.67-1.888-2.216-3.01-5.03-3.01-7.907 0-6.317 4.845-11.835 3.097-16.296 1.701.138 3.52 3.59 3.643 8.986 1.809-2.499 2.565-7.062 2.565-9.86 0-2.897 1.91-6.262 3.818-6.377-1.703 2.806.441 5.208 2.346 11.175.714 2.241.623 6.012 1.174 8.404.183-4.968 1.037-12.214 4.189-14.716-1.39 3.15.207 7.094 1.297 8.99 1.763 3.057 2.83 5.375 2.83 9.747 0 2.938-1.086 5.704-2.915 7.877 2.08-.391 3.517-.743 3.517-.743l6.756-1.319c0-.001-.981 4.037-4.753 7.926l.008.001z" fill="#DA4E31" fill-rule="nonzero"/>
</svg>
